X: 27347
T: Mister Molly's
R: jig
M: 6/8
K: Fmajor
|:A, (3A,A,A, C (3CCC|(3DEF E FGA|B (3BBB A (3AAF|GFG AFC
A, (3A,A,A, C (3CCC|(3DEF E FGA|BAG AFc|1 GFE FCB,:|2 GFE FcB||
|:A (3AAA cA(B|B)AG GFD|C (3CCC C (3DEF|FGG GFG
A (3AAA cA(d|d)cA GFD|C (3CCC C (3DEF|1 GFE FcB:|2 GFE FCB,||

